X:15
T:Haste to the Wedding    Jig     Allan's #15
C:Trad/Anon
B:Allan's Irish Fiddler (pub. Mozart Allen,  Glascow) date unknown
Z:FROM ALLAN'S TO NOTEWORTHY, FROM NOTEWORTHY TO ABC, MIDI AND .TXT BY VINCE
BRENNAN Dec. 2002 (HTTP://WWW.SOSYOURMOM.COM)
I:abc2nwc
M:6/8
L:1/8
K:D
A|AFA Agf|ede fdB|AFA AdF|GFGE2A|
AFA Agf|ede fdB|A2g faf|ded d2:|
|:a|afa afa|bgb bgb|afa agf|gfg efg|
a3f3|ede fdB|A2g faf|ded d2:|
